static/assets/img/icons/theme/files/pictures-1.svg

<svg height="24" viewBox="0 0 24 24" width="24" xmlns="http://www.w3.org/2000/svg"><g fill="none" fill-rule="evenodd"><path d="m0 0h24v24h-24z" opacity="0"/><g fill="#000"><path d="m3.5 21h17c.8284271 0 1.5-.6715729 1.5-1.5v-11c0-.82842712-.6715729-1.5-1.5-1.5h-10.5l-2.56066017-2.56066017c-.28130457-.28130457-.66283544-.43933983-1.06066017-.43933983h-2.87867966c-.82842712 0-1.5.67157288-1.5 1.5v14c0 .8284271.67157288 1.5 1.5 1.5z" opacity=".3"/><path d="m4 19 6-8 6 8z" opacity=".3"/><path d="m11 19 4-5 4 5z"/><path d="m18 12c.8284271 0 1.5-.6715729 1.5-1.5 0-.82842712-.6715729-1.5-1.5-1.5s-1.5.67157288-1.5 1.5c0 .8284271.6715729 1.5 1.5 1.5z" opacity=".3"/></g></g></svg>

<svg width="24px" height="24px" viewBox="0 0 24 24" version="1.1" xmlns="http://www.w3.org/2000/svg" xmlns:xlink="http://www.w3.org/1999/xlink">
    <title>Icon For Pictures#1</title>
    <g stroke="none" stroke-width="1" fill="none" fill-rule="evenodd">
        <rect opacity="0" x="0" y="0" width="24" height="24"></rect>
        <path d="M3.5,21 L20.5,21 C21.3284271,21 22,20.3284271 22,19.5 L22,8.5 C22,7.67157288 21.3284271,7 20.5,7 L10,7 L7.43933983,4.43933983 C7.15803526,4.15803526 6.77650439,4 6.37867966,4 L3.5,4 C2.67157288,4 2,4.67157288 2,5.5 L2,19.5 C2,20.3284271 2.67157288,21 3.5,21 Z" fill="#000000" opacity="0.3"></path>
        <polygon fill="#000000" opacity="0.3" points="4 19 10 11 16 19"></polygon>
        <polygon fill="#000000" points="11 19 15 14 19 19"></polygon>
        <path d="M18,12 C18.8284271,12 19.5,11.3284271 19.5,10.5 C19.5,9.67157288 18.8284271,9 18,9 C17.1715729,9 16.5,9.67157288 16.5,10.5 C16.5,11.3284271 17.1715729,12 18,12 Z" fill="#000000" opacity="0.3"></path>
    </g>
</svg>
